X: 1
T:Pat Hogan's #1
M:4/4/
L:1/4
Q:120
R:March
K:Em
"Em"B2 B>A|"D"FADA|"Em"B2B>A|Bd"D"ed|
"Em"B2 B>A|"D"FAD>E|FDAF|'"Em"E2-E2::
"Em"Bee>f|edBA|Bee>f|edBc|
"G"d>edB|"D"AFD>E|FDAF|"Em"E2-E2:|
